X: 23279
T: Leaving The Porchlight On
R: march
M: 
K: Amajor
M: C|
A<B|:"F#m" c2 f>g a>f g<e|"D" f2 A<B "A/C#" c4|"Bm" d>d d<e c>B A>c|
"E" B>E E/E/E/E/ e>d c<B|"F#m" c2 f>g a>f g<e|"D" f2 (3ABc (d2 d)>e|"D" d>f a<b "E" g<f e>B|
[1 "A" c>A "E"B<G "F#m"F2 A<B:|2 "A" c>A "E" B<G "F#m" (F2 F)>E|:"F#m" F>C "E/G#" G<E "A" A2 (3ABc|"D" d>A "E" e<B "F#m" c4|
"D" d>f a<b "A/C#" g<f e>B|"Bm" c>A d<c "E" B2 (3BAB|"A" c>A "Bm" d<B "A/C#" e2 (3cde|
"D" f>a "E" g<b "F#m" (a2 a)>g|"D" f2 (3fga "A/C#" e<A d>B|1 "A" c>A "E" B<G "A" (A2 A)>G:|2 "A" c>A "E" B<G "A" A4||

